X: 5
T: Jockey to the Fair
%R: jig
B: "Twenty Four Country Dances for the Year 1780", Thomas Skillern, ed. p.3 #1
F: http://www.vwml.org/browse/browse-collections-dance-tune-books/browse-skillerns1780#
Z: 2014 John Chambers <jc:trillian.mit.edu>
M: 6/8
L: 1/8
K: G
D |\
G2A B2c | d2g d2c | BdG GFG | A/B/cB A2d |\
d^cd efg | faf e2g | fed Ad^c | d3- d2 :|
|: d |\
afd c2c | dgd B2B | e2f g2f | e^de B2A |\
G2G G2B | d3 g3 | B2g BcA | G3- G2 :|
%%begintext align
%%   First and 2d Cu: pas Rigadon Chasse with
%% Partners & Allemand on each side .|. the
%% same back again & Allmand on each side :|.
%% First three Cu Promenade .|: Cross over one
%% Cu. and Right and Left at top :|:
%%endtext

%%sep 1 1 500
%%sep 1 1 500
